X:1
T:Duo en si b\'emol majeur\.i
T:From "Nouvelle M\'ethode th\'eoretique et pratique"
C:Fran\ccois Devienne\.i
B:Devienne: Nouvelle M\'ethode (c. 1800)
Z:Transcribed by Frank Nordberg - http://www.musicaviva.com
F:http://abc.musicaviva.com/tunes/devienne-francois/devienne-nouvelle18.abc
V:1 Program 1 73 %Flute
V:2 Program 1 73 %Flute
M:3/4
L:1/8
K:Bb
V:1
"^1er Menuet"f6|g6|(ab)(c'd')(e'a)|(c'bab)ff2|f6|
g6|(ab)(c'd')(e'a)|(c'4b2)::a2(a2b2)|c'2(c'bc').a|b2(b2c'2)|
(d'4b2)|(abc'd'e'd')|(c'bagfe)|(df)B2 Tc2 {B/c/}|c4"_Fine"B2:|
K:Eb
"^2e Menuet"(eg)b2b2|(ba)(fa)g2|(eg)b2b2|(ba)(fa)g2|(3(=aga) (3(cb).a (3(gf).e|
(3(de).f (3(g=a).b (3(fe).d|(3(ce).g .f2 (T=a2 {g/a/})|(c'4b2)::(b_d')(d'c')(c'b)|
(af)(=eg)f2|(ac')(c'b)(ba)|(ge)(df)e2|(3(bc').d' (3(e'd').c' (3(ba).g|
(fe).d (cB).A Ge'|(fc')(be)(df)|("^1er Menuet D.C."f4e2):|
V:2
K:Bb
d6|e6|c4(ce)|(edcd)d2|(df)(ba)(gf)|
(ed)(cB)(AG)|F4(ce)|(e4d2)::c2(c2d2)|e2(ede).c|d2(d2e2)|
(f4d2)|(f2edcB)|(AGFedc)|(Bd)D2E2|E4D2:|
K:Eb
e2g2e2|f2d2e2|e2g2e2|f2d2e2|c4=A2|
B2e2(3(dc).B|(e2d2) (Tc2 {B/c/})|(e4d2)::=E6|
F2G2A2|D6|E2F2G2|(3(ga).b (3(c'b).a (3(gf).e|
(3(dc).B (3(AG).F EG|A2G2(FA)|(A4G2):|
W:
W:
W:  From Musica Viva - http://www.musicaviva.com
W:  the Internet center for free sheet music downloads.
